X:15025
T:Scotch Mary
T:Abbey Reel, The
R:reel
H:Played in Dmix or Amix
D:Dervish: At the End of the Day
D:Dessie Wilkinson, Gerry O'Connor & Eithne N\'i Uallachain
Z:id:hn-reel-700
M:C|
K:Amix
cded cded|cAAF G2ed|1 cded cded|cABc A2AB:|2 cdef gfed|cABc ABce||
|:a2ag ~e3d|cdef g2fg|1 eaag ~e3d|cABc ABce:|2 afge (3fga ed|cABc A2AB||
K:Dmix
FGAG FGAG|FDDB, C2AG|1 FGAG FGAG|FDEF D2DE:|2 FGAB cBAG|FDEF DEFA||
|:d2dc ~A3G|FGAB c2Bc|1 Addc ~A3G|FDEF DEFA:|2 dBcA (3Bcd AG|FDEF D2DE||
